X:12
T:Richmond Hill. TJD.12
M:2/4
L:1/8
Q:1/4=120
S:T.J.Dixon MS1, Lincolnshire,1798
R:quick step
A:Lincolnshire, Holton le Moor
Z:vmp.R.Greig2010
K:G
D|”^As Written”GG2D|AA2c|Bd EA|F DD|GA2D|GA2D|AA2c|(Bd)DF|G2:|!
|:dBgB|cAac|BGEA|FD2B/c/|dBgB|cAaA|BGDF|G2:|]

